openmetadata-ui/src/main/resources/ui/src/assets/img/slackChat/icon-support.svg

<svg xmlns="http://www.w3.org/2000/svg" width="512" height="512" fill="none"><circle cx="256" cy="256" r="256" fill="#fff"/><path fill="#004AB3FF" d="M372.366 276.948V213.4c0-30.899-12.26-60.533-34.084-82.382a116.298 116.298 0 0 0-82.284-34.124 116.298 116.298 0 0 0-82.285 34.124 116.573 116.573 0 0 0-34.084 82.382v63.548c0 30.899 12.26 60.533 34.084 82.382a116.298 116.298 0 0 0 82.285 34.123 116.297 116.297 0 0 0 82.284-34.123 116.573 116.573 0 0 0 34.084-82.382Zm-155.617 34.846a10.563 10.563 0 0 1 11.58-2.319 10.589 10.589 0 0 1 3.443 2.319 34.17 34.17 0 0 0 11.107 7.462 34.132 34.132 0 0 0 37.344-7.462 10.616 10.616 0 0 1 15.022 0 10.644 10.644 0 0 1 0 15.04c-36.709 36.328-95.845 2.33-78.496-15.04Z"/><path fill="#35198E" d="M425.263 192.215h-12.06A158.93 158.93 0 0 0 360.28 94.12 158.58 158.58 0 0 0 256 55a158.58 158.58 0 0 0-104.28 39.12 158.925 158.925 0 0 0-52.923 98.095h-12.06a31.718 31.718 0 0 0-22.441 9.307A31.792 31.792 0 0 0 55 223.99v63.548a31.79 31.79 0 0 0 9.296 22.467 31.714 31.714 0 0 0 22.44 9.307h31.738c2.805 0 5.496-1.116 7.48-3.102a10.6 10.6 0 0 0 3.099-7.489V202.807a10.6 10.6 0 0 0-2.478-6.948 10.576 10.576 0 0 0-6.409-3.644 137.735 137.735 0 0 1 46.516-83.161A137.432 137.432 0 0 1 256 76.064a137.432 137.432 0 0 1 89.318 32.99 137.735 137.735 0 0 1 46.516 83.161 10.58 10.58 0 0 0-6.409 3.644 10.6 10.6 0 0 0-2.478 6.948v105.914a10.6 10.6 0 0 0 3.099 7.489 10.572 10.572 0 0 0 7.48 3.102 116.585 116.585 0 0 1-26.904 74.539 116.34 116.34 0 0 1-68.306 40.06 26.604 26.604 0 0 0-6.481-20.919 26.563 26.563 0 0 0-9.02-6.629 26.52 26.52 0 0 0-10.946-2.32H250.71a26.425 26.425 0 0 0-18.7 7.756 26.496 26.496 0 0 0 0 37.446 26.432 26.432 0 0 0 18.7 7.755h26.448a137.45 137.45 0 0 0 97.246-40.328 137.77 137.77 0 0 0 40.28-97.36h10.579c8.417 0 16.49-3.347 22.442-9.307A31.793 31.793 0 0 0 457 287.538V223.99c0-8.427-3.344-16.51-9.295-22.468a31.72 31.72 0 0 0-22.442-9.307Z"/></svg>

<svg width="512" height="512" viewBox="0 0 512 512" fill="none" xmlns="http://www.w3.org/2000/svg">
<circle cx="256" cy="256" r="256" fill="white"/>
<path d="M372.366 276.948V213.4C372.366 182.501 360.106 152.867 338.282 131.018C316.459 109.169 286.86 96.8945 255.998 96.8945C225.135 96.8945 195.536 109.169 173.713 131.018C151.889 152.867 139.629 182.501 139.629 213.4V276.948C139.629 307.847 151.889 337.481 173.713 359.33C195.536 381.179 225.135 393.453 255.998 393.453C286.86 393.453 316.459 381.179 338.282 359.33C360.106 337.481 372.366 307.847 372.366 276.948ZM216.749 311.794C217.733 310.801 218.903 310.013 220.192 309.475C221.481 308.937 222.864 308.661 224.261 308.661C225.657 308.661 227.04 308.937 228.329 309.475C229.618 310.013 230.788 310.801 231.772 311.794C234.947 314.989 238.722 317.526 242.879 319.256C247.037 320.987 251.495 321.878 255.998 321.878C260.5 321.878 264.958 320.987 269.115 319.256C273.273 317.526 277.048 314.989 280.223 311.794C282.215 309.8 284.917 308.679 287.735 308.679C290.552 308.679 293.253 309.8 295.245 311.794C297.237 313.788 298.356 316.493 298.356 319.313C298.356 322.134 297.237 324.839 295.245 326.834C258.536 363.162 199.4 329.164 216.749 311.794Z" fill="#004AB3"/>
<path d="M425.263 192.215H413.203C407.977 154.19 389.177 119.344 360.28 94.1204C331.381 68.8965 294.338 55 256 55C217.662 55 180.619 68.8965 151.72 94.1204C122.822 119.344 104.023 154.19 98.7969 192.215H86.7369C78.3197 192.215 70.2473 195.563 64.2955 201.522C58.3437 207.48 55 215.563 55 223.99V287.538C55 295.965 58.3437 304.047 64.2955 310.005C70.2473 315.965 78.3197 319.312 86.7369 319.312H118.474C121.279 319.312 123.97 318.196 125.954 316.21C127.938 314.223 129.053 311.529 129.053 308.721V202.807C129.085 200.268 128.206 197.803 126.575 195.859C124.944 193.915 122.67 192.621 120.166 192.215C125.288 159.835 141.783 130.346 166.682 109.054C191.583 87.7614 223.254 76.0633 256 76.0633C288.746 76.0633 320.417 87.7614 345.318 109.054C370.217 130.346 386.712 159.835 391.834 192.215C389.331 192.621 387.056 193.915 385.425 195.859C383.794 197.803 382.915 200.268 382.947 202.807V308.721C382.947 311.529 384.062 314.223 386.046 316.21C388.03 318.196 390.72 319.312 393.526 319.312C393.534 346.543 384.016 372.916 366.622 393.851C349.229 414.786 325.061 428.96 298.316 433.911C298.782 430.163 298.445 426.359 297.327 422.752C296.21 419.145 294.338 415.818 291.835 412.992C289.333 410.166 286.258 407.907 282.815 406.363C279.373 404.82 275.641 404.029 271.869 404.043H250.71C243.697 404.043 236.969 406.832 232.01 411.799C227.05 416.764 224.263 423.499 224.263 430.521C224.263 437.544 227.05 444.279 232.01 449.245C236.969 454.21 243.697 457 250.71 457H277.158C313.632 457 348.612 442.493 374.404 416.672C400.195 390.851 414.684 355.829 414.684 319.312H425.263C433.68 319.312 441.753 315.965 447.705 310.005C453.656 304.047 457 295.965 457 287.538V223.99C457 215.563 453.656 207.48 447.705 201.522C441.753 195.563 433.68 192.215 425.263 192.215Z" fill="#35198E"/>
</svg>
